icons/svgs/file-invoice-dollar-outline.svg

<svg width="24" height="24" viewBox="0 0 24 24" fill="none" xmlns="http://www.w3.org/2000/svg">
<path d="M18.125 19.5V8.25H15C14.2969 8.25 13.75 7.70312 13.75 7V3.875H7.5C7.14844 3.875 6.875 4.1875 6.875 4.5V19.5C6.875 19.8516 7.14844 20.125 7.5 20.125H17.5C17.8125 20.125 18.125 19.8516 18.125 19.5ZM5 4.5C5 3.13281 6.09375 2 7.5 2H13.9453C14.6094 2 15.2344 2.27344 15.7031 2.74219L19.2578 6.29688C19.7266 6.76562 20 7.39062 20 8.05469V19.5C20 20.9062 18.8672 22 17.5 22H7.5C6.09375 22 5 20.9062 5 19.5V4.5ZM12.5 10.4375C12.9297 10.4375 13.2812 10.7891 13.2812 11.2188V11.6094C13.5547 11.6484 13.8281 11.7266 14.0625 11.7656C14.4922 11.8828 14.7656 12.3125 14.6484 12.7031C14.5703 13.1328 14.1406 13.4062 13.7109 13.2891C13.2812 13.2109 12.8516 13.1328 12.4609 13.1328C12.1484 13.0938 11.8359 13.1719 11.6016 13.2891C11.4062 13.4062 11.4062 13.4844 11.4062 13.5234C11.4062 13.5625 11.4453 13.6016 11.5625 13.6797C11.7969 13.7969 12.1875 13.9141 12.6953 14.0312C13.125 14.1484 13.7109 14.3047 14.1406 14.5781C14.6094 14.8516 15.1172 15.3203 15.1172 16.1016C15.1562 16.9219 14.6875 17.4688 14.1406 17.7422C13.8672 17.8984 13.5547 18.0156 13.2422 18.0547V18.4453C13.2422 18.875 12.8906 19.2266 12.4609 19.2266C12.0312 19.2266 11.6797 18.875 11.6797 18.4453V18.0156C11.2891 17.9375 10.9375 17.8203 10.625 17.7422C10.5469 17.7031 10.4688 17.7031 10.3906 17.6641C9.96094 17.5469 9.72656 17.1172 9.84375 16.6875C9.96094 16.2578 10.4297 16.0234 10.8203 16.1797C10.9375 16.1797 11.0156 16.2188 11.0938 16.2578C11.6406 16.4141 12.0703 16.5312 12.5 16.5312C12.8516 16.5703 13.1641 16.4922 13.3984 16.375C13.5547 16.2969 13.5938 16.2188 13.5938 16.1016C13.5938 16.1016 13.5938 16.0234 13.3984 15.9062C13.125 15.7891 12.7734 15.6719 12.2656 15.5547L12.2266 15.5156C11.7969 15.3984 11.25 15.2422 10.8203 15.0469C10.3516 14.7734 9.84375 14.3047 9.84375 13.5234C9.80469 12.7031 10.3516 12.1953 10.8594 11.9219C11.1328 11.7656 11.4062 11.6875 11.7188 11.6094V11.2188C11.7188 10.7891 12.0703 10.4375 12.5 10.4375ZM8.75 5.75H11.875C12.1875 5.75 12.5 6.0625 12.5 6.375C12.5 6.72656 12.1875 7 11.875 7H8.75C8.39844 7 8.125 6.72656 8.125 6.375C8.125 6.0625 8.39844 5.75 8.75 5.75ZM8.75 8.25H11.875C12.1875 8.25 12.5 8.5625 12.5 8.875C12.5 9.22656 12.1875 9.5 11.875 9.5H8.75C8.39844 9.5 8.125 9.22656 8.125 8.875C8.125 8.5625 8.39844 8.25 8.75 8.25Z" fill="black"/>
</svg>

<svg xmlns="http://www.w3.org/2000/svg" width="24" height="24" fill="currentColor" class="icon-file-invoice-dollar-outline" viewBox="0 0 24 24">
  <mask id="a" width="15" height="20" x="5" y="2" maskUnits="userSpaceOnUse" style="mask-type:alpha">
    <path d="M18.125 19.5V8.25H15c-.703 0-1.25-.547-1.25-1.25V3.875H7.5a.64.64 0 0 0-.625.625v15c0 .352.273.625.625.625h10a.64.64 0 0 0 .625-.625M5 4.5C5 3.133 6.094 2 7.5 2h6.445c.664 0 1.29.273 1.758.742l3.555 3.555c.469.469.742 1.094.742 1.758V19.5c0 1.406-1.133 2.5-2.5 2.5h-10A2.47 2.47 0 0 1 5 19.5zm7.5 5.938c.43 0 .781.351.781.78v.391c.274.04.547.118.781.157.43.117.704.547.586.937a.75.75 0 0 1-.937.586c-.43-.078-.86-.156-1.25-.156a1.55 1.55 0 0 0-.86.156c-.195.117-.195.195-.195.234s.04.079.156.157c.235.117.626.234 1.133.351.43.117 1.016.274 1.446.547.468.274.976.742.976 1.524.04.82-.43 1.367-.976 1.64a2.5 2.5 0 0 1-.899.313v.39c0 .43-.351.782-.781.782a.784.784 0 0 1-.781-.782v-.43c-.39-.078-.742-.195-1.055-.273-.078-.039-.156-.039-.234-.078a.78.78 0 0 1-.547-.977c.117-.43.586-.664.976-.507.117 0 .196.039.274.078.547.156.976.273 1.406.273.352.04.664-.039.898-.156.157-.078.196-.156.196-.273 0 0 0-.079-.196-.196a6.6 6.6 0 0 0-1.132-.351l-.04-.04c-.43-.117-.976-.273-1.406-.468-.468-.274-.976-.742-.976-1.524-.04-.82.508-1.328 1.015-1.601.274-.156.547-.235.86-.313v-.39c0-.43.351-.781.781-.781M8.75 5.75h3.125c.313 0 .625.313.625.625a.64.64 0 0 1-.625.625H8.75a.617.617 0 0 1-.625-.625c0-.312.273-.625.625-.625m0 2.5h3.125c.313 0 .625.313.625.625a.64.64 0 0 1-.625.625H8.75a.617.617 0 0 1-.625-.625c0-.312.273-.625.625-.625"/>
  </mask>
  <g mask="url(#a)">
    <path d="M0 0h24v24H0z"/>
  </g>
</svg>
